X: 62
T: Debka Irit
T: Simchat Hakatsir
C: Pnina Yehoshua 1972
O: Israel
S: Moshe Eskayo
M: 2/4
L: 1/8
Q: 1/4=130
K: Dm
%%MIDI gchord fzfz
    "Dm"FA2A |BA/G/Gz    |"Am"FDEC   |"Dm"D2D2
|:  "Dm"DFAF |"Bb"GABG   |"C"zczB    |BA/G/Az|
    "Dm" DFAF|"Bb"GAB/A/G|"Am"cAB/A/G|A2A2
::  "Dm"FA2A |BA/G/Gz    |FA2A       |BA/G/Gz|
    FA2A     |BA/G/Gz    |FDEC       |D2 D2  :|



